dist/images/apartments.svg

<svg xmlns="http://www.w3.org/2000/svg" width="72" height="72"><path fill-rule="evenodd" fill="#818181" d="M70.698 69.404h-.658a3.87 3.87 0 00.224-1.301 3.88 3.88 0 00-.971-2.576 3.909 3.909 0 00-2.499-4.572V15.192a1.3 1.3 0 00-1.302-1.301h-19.52V1.314c0-.719-.583-1.302-1.302-1.302H6.496c-.718 0-1.301.583-1.301 1.302v59.641a3.909 3.909 0 00-2.499 4.572 3.894 3.894 0 00-.748 3.877h-.657a1.302 1.302 0 000 2.602h69.407a1.3 1.3 0 100-2.602zM38.597 54.659c.719 0 1.301-.583 1.301-1.301v-1.736a1.3 1.3 0 00-2.602 0v1.736c0 .718.583 1.301 1.301 1.301zm-5.205 0c.718 0 1.301-.583 1.301-1.301v-1.736a1.3 1.3 0 00-2.603 0v1.736c0 .718.583 1.301 1.302 1.301zm-5.206 0c.719 0 1.301-.583 1.301-1.301v-1.736a1.3 1.3 0 00-2.602 0v1.736c0 .718.582 1.301 1.301 1.301zm-5.206 0c.719 0 1.302-.583 1.302-1.301v-1.736a1.301 1.301 0 00-2.603 0v1.736c0 .718.583 1.301 1.301 1.301zm-5.205 0c.718 0 1.301-.583 1.301-1.301v-1.736a1.3 1.3 0 00-2.602 0v1.736c0 .718.582 1.301 1.301 1.301zm-5.205 0c.718 0 1.301-.583 1.301-1.301v-1.736a1.3 1.3 0 00-2.603 0v1.736c0 .718.583 1.301 1.302 1.301zm26.027-8.674c.719 0 1.301-.583 1.301-1.301v-1.735a1.3 1.3 0 10-2.602 0v1.735c0 .719.583 1.301 1.301 1.301zm-5.205 0c.718 0 1.301-.583 1.301-1.301v-1.735a1.301 1.301 0 00-2.603 0v1.735c0 .719.583 1.301 1.302 1.301zm-5.206 0c.719 0 1.301-.583 1.301-1.301v-1.735a1.3 1.3 0 10-2.602 0v1.735a1.3 1.3 0 001.301 1.301zm-5.206 0c.719 0 1.302-.583 1.302-1.301v-1.735a1.301 1.301 0 00-2.603 0v1.735c0 .719.583 1.301 1.301 1.301zm-5.205 0c.718 0 1.301-.583 1.301-1.301v-1.735a1.301 1.301 0 00-2.602 0v1.735a1.3 1.3 0 001.301 1.301zm-5.205 0c.718 0 1.301-.583 1.301-1.301v-1.735a1.301 1.301 0 00-2.603 0v1.735c0 .719.583 1.301 1.302 1.301zm26.027-8.674c.719 0 1.301-.583 1.301-1.302v-1.734a1.3 1.3 0 10-2.602 0v1.734c0 .719.583 1.302 1.301 1.302zm-5.205 0c.718 0 1.301-.583 1.301-1.302v-1.734a1.301 1.301 0 00-2.603 0v1.734c0 .719.583 1.302 1.302 1.302zm-5.206 0c.719 0 1.301-.583 1.301-1.302v-1.734a1.3 1.3 0 10-2.602 0v1.734c0 .719.582 1.302 1.301 1.302zm-5.206 0c.719 0 1.302-.583 1.302-1.302v-1.734a1.301 1.301 0 00-2.603 0v1.734c0 .719.583 1.302 1.301 1.302zm-5.205 0c.718 0 1.301-.583 1.301-1.302v-1.734a1.301 1.301 0 00-2.602 0v1.734c0 .719.582 1.302 1.301 1.302zm-5.205 0c.718 0 1.301-.583 1.301-1.302v-1.734a1.301 1.301 0 00-2.603 0v1.734c0 .719.583 1.302 1.302 1.302zm26.027-8.674c.719 0 1.301-.583 1.301-1.301v-1.735a1.3 1.3 0 10-2.602 0v1.735c0 .718.583 1.301 1.301 1.301zm-5.205 0c.718 0 1.301-.583 1.301-1.301v-1.735a1.301 1.301 0 00-2.603 0v1.735c0 .718.583 1.301 1.302 1.301zm-5.206 0c.719 0 1.301-.583 1.301-1.301v-1.735a1.3 1.3 0 10-2.602 0v1.735c0 .718.582 1.301 1.301 1.301zm-5.206 0c.719 0 1.302-.583 1.302-1.301v-1.735a1.301 1.301 0 00-2.603 0v1.735c0 .718.583 1.301 1.301 1.301zm-5.205 0c.718 0 1.301-.583 1.301-1.301v-1.735a1.301 1.301 0 00-2.602 0v1.735c0 .718.582 1.301 1.301 1.301zm-5.205 0c.718 0 1.301-.583 1.301-1.301v-1.735a1.301 1.301 0 00-2.603 0v1.735c0 .718.583 1.301 1.302 1.301zm26.027-8.674c.719 0 1.301-.583 1.301-1.301v-1.735a1.3 1.3 0 10-2.602 0v1.735c0 .718.583 1.301 1.301 1.301zm-5.205 0c.718 0 1.301-.583 1.301-1.301v-1.735a1.301 1.301 0 00-2.603 0v1.735c0 .718.583 1.301 1.302 1.301zm-5.206 0c.719 0 1.301-.583 1.301-1.301v-1.735a1.3 1.3 0 10-2.602 0v1.735c0 .718.582 1.301 1.301 1.301zm-5.206 0c.719 0 1.302-.583 1.302-1.301v-1.735a1.301 1.301 0 00-2.603 0v1.735c0 .718.583 1.301 1.301 1.301zm-5.205 0c.718 0 1.301-.583 1.301-1.301v-1.735a1.301 1.301 0 00-2.602 0v1.735c0 .718.582 1.301 1.301 1.301zm-5.205 0c.718 0 1.301-.583 1.301-1.301v-1.735a1.301 1.301 0 00-2.603 0v1.735c0 .718.583 1.301 1.302 1.301zm26.027-8.674c.719 0 1.301-.583 1.301-1.301V8.253a1.3 1.3 0 10-2.602 0v1.735c0 .719.583 1.301 1.301 1.301zm-5.205 0c.718 0 1.301-.583 1.301-1.301V8.253a1.301 1.301 0 00-2.603 0v1.735c0 .719.583 1.301 1.302 1.301zm-5.206 0c.719 0 1.301-.583 1.301-1.301V8.253a1.3 1.3 0 10-2.602 0v1.735a1.3 1.3 0 001.301 1.301zm-5.206 0c.719 0 1.302-.583 1.302-1.301V8.253a1.301 1.301 0 00-2.603 0v1.735c0 .719.583 1.301 1.301 1.301zm-5.205 0c.718 0 1.301-.583 1.301-1.301V8.253a1.301 1.301 0 00-2.602 0v1.735a1.3 1.3 0 001.301 1.301zm-5.205 0c.718 0 1.301-.583 1.301-1.301V8.253a1.301 1.301 0 00-2.603 0v1.735c0 .719.583 1.301 1.302 1.301zm37.306 46.839h10.411a1.3 1.3 0 100-2.602H49.876a1.301 1.301 0 100 2.602zm0-6.939h10.411a1.3 1.3 0 100-2.602H49.876a1.302 1.302 0 100 2.602zm0-6.939h10.411a1.301 1.301 0 000-2.602H49.876a1.301 1.301 0 100 2.602zm0-6.939h10.411a1.301 1.301 0 000-2.603H49.876a1.302 1.302 0 100 2.603zm0-6.939h10.411a1.301 1.301 0 000-2.602H49.876a1.301 1.301 0 100 2.602zm0-6.94h10.411a1.3 1.3 0 100-2.602H49.876a1.302 1.302 0 100 2.602zm-3.904-6.938h18.219v44.462a3.834 3.834 0 00-.434.183 3.9 3.9 0 00-3.47 0 3.883 3.883 0 00-3.47 0 3.887 3.887 0 00-3.471 0 3.9 3.9 0 00-3.47 0 3.883 3.883 0 00-3.47 0 3.834 3.834 0 00-.434-.183V16.494zM7.797 2.615h35.572v58.341a3.759 3.759 0 00-.434.183 3.883 3.883 0 00-3.037-.183v-.659a1.3 1.3 0 10-2.602 0v.459a3.89 3.89 0 00-1.302.383 3.884 3.884 0 00-1.301-.383v-.459a1.301 1.301 0 00-2.603 0v.659a3.866 3.866 0 00-2.603 0v-.659a1.3 1.3 0 10-2.602 0v.459c-.455.05-.895.181-1.302.383a3.884 3.884 0 00-1.301-.383v-.459a1.301 1.301 0 00-2.603 0v.659a3.866 3.866 0 00-2.603 0v-.659a1.301 1.301 0 00-2.603 0v.459c-.454.05-.894.181-1.301.383a3.884 3.884 0 00-1.301-.383v-.459a1.301 1.301 0 00-2.603 0v.659a3.871 3.871 0 00-3.037.183 3.759 3.759 0 00-.434-.183V2.615zm58.566 66.789h-.006l-60.722.001-.006-.001a1.298 1.298 0 01-.698-2.397 1.3 1.3 0 00.432-1.736 1.302 1.302 0 011.133-1.938c.409 0 .697.182.867.334a1.3 1.3 0 001.738 0c.17-.152.458-.334.866-.334s.696.182.866.334a1.3 1.3 0 001.738 0c.17-.152.458-.334.867-.334.408 0 .696.182.866.334a1.3 1.3 0 001.738 0 1.289 1.289 0 011.733 0 1.3 1.3 0 001.737 0c.17-.152.458-.334.867-.334.408 0 .696.182.866.334a1.3 1.3 0 001.738 0 1.286 1.286 0 011.733 0 1.3 1.3 0 001.738 0c.17-.152.458-.334.866-.334s.696.182.866.334a1.3 1.3 0 001.738 0c.17-.152.458-.334.866-.334.409 0 .697.182.867.334a1.3 1.3 0 001.738 0c.17-.152.458-.334.866-.334s.697.182.866.334a1.302 1.302 0 001.739 0 1.28 1.28 0 01.866-.334c.408 0 .696.182.866.334a1.3 1.3 0 001.738 0c.17-.152.458-.334.867-.334.407 0 .696.182.865.334a1.302 1.302 0 001.739 0c.169-.152.458-.334.866-.334s.696.182.866.334a1.3 1.3 0 001.738 0c.17-.152.458-.334.867-.334.408 0 .696.182.866.334a1.3 1.3 0 001.738 0 1.289 1.289 0 011.733 0 1.3 1.3 0 001.737 0 1.286 1.286 0 011.733 0 1.3 1.3 0 001.738 0 1.286 1.286 0 011.733 0 1.3 1.3 0 001.738 0c.17-.152.458-.334.866-.334s.696.182.866.334a1.3 1.3 0 001.738 0c.17-.152.458-.334.867-.334a1.302 1.302 0 011.133 1.938 1.3 1.3 0 00.432 1.736 1.298 1.298 0 01-.699 2.397z"/></svg>

<svg 
 xmlns="http://www.w3.org/2000/svg"
 xmlns:xlink="http://www.w3.org/1999/xlink"
 width="72px" height="72px">
<path fill-rule="evenodd"  fill="rgb(129, 129, 129)"
 d="M70.698,69.404 L70.040,69.404 C70.185,68.997 70.264,68.559 70.264,68.103 C70.264,67.138 69.913,66.229 69.293,65.527 C69.361,65.235 69.397,64.936 69.397,64.634 C69.397,62.938 68.309,61.492 66.794,60.955 L66.794,15.192 C66.794,14.473 66.212,13.891 65.492,13.891 L45.972,13.891 L45.972,1.314 C45.972,0.595 45.389,0.012 44.670,0.012 L6.496,0.012 C5.778,0.012 5.195,0.595 5.195,1.314 L5.195,60.955 C3.680,61.492 2.592,62.938 2.592,64.634 C2.592,64.936 2.627,65.235 2.696,65.527 C2.076,66.229 1.724,67.138 1.724,68.103 C1.724,68.559 1.804,68.997 1.948,69.404 L1.291,69.404 C0.572,69.404 -0.011,69.987 -0.011,70.706 C-0.011,71.424 0.572,72.006 1.291,72.006 L70.698,72.006 C71.417,72.006 71.999,71.424 71.999,70.706 C71.999,69.987 71.417,69.404 70.698,69.404 L70.698,69.404 ZM38.597,54.659 C39.316,54.659 39.898,54.076 39.898,53.358 L39.898,51.622 C39.898,50.904 39.316,50.322 38.597,50.322 C37.879,50.322 37.296,50.904 37.296,51.622 L37.296,53.358 C37.296,54.076 37.879,54.659 38.597,54.659 L38.597,54.659 ZM33.392,54.659 C34.110,54.659 34.693,54.076 34.693,53.358 L34.693,51.622 C34.693,50.904 34.110,50.322 33.392,50.322 C32.673,50.322 32.090,50.904 32.090,51.622 L32.090,53.358 C32.090,54.076 32.673,54.659 33.392,54.659 L33.392,54.659 ZM28.186,54.659 C28.905,54.659 29.487,54.076 29.487,53.358 L29.487,51.622 C29.487,50.904 28.905,50.322 28.186,50.322 C27.467,50.322 26.885,50.904 26.885,51.622 L26.885,53.358 C26.885,54.076 27.467,54.659 28.186,54.659 L28.186,54.659 ZM22.980,54.659 C23.699,54.659 24.282,54.076 24.282,53.358 L24.282,51.622 C24.282,50.904 23.699,50.322 22.980,50.322 C22.262,50.322 21.679,50.904 21.679,51.622 L21.679,53.358 C21.679,54.076 22.262,54.659 22.980,54.659 L22.980,54.659 ZM17.775,54.659 C18.493,54.659 19.076,54.076 19.076,53.358 L19.076,51.622 C19.076,50.904 18.493,50.322 17.775,50.322 C17.056,50.322 16.474,50.904 16.474,51.622 L16.474,53.358 C16.474,54.076 17.056,54.659 17.775,54.659 L17.775,54.659 ZM12.570,54.659 C13.288,54.659 13.871,54.076 13.871,53.358 L13.871,51.622 C13.871,50.904 13.288,50.322 12.570,50.322 C11.851,50.322 11.268,50.904 11.268,51.622 L11.268,53.358 C11.268,54.076 11.851,54.659 12.570,54.659 L12.570,54.659 ZM38.597,45.985 C39.316,45.985 39.898,45.402 39.898,44.684 L39.898,42.949 C39.898,42.230 39.316,41.648 38.597,41.648 C37.879,41.648 37.296,42.230 37.296,42.949 L37.296,44.684 C37.296,45.403 37.879,45.985 38.597,45.985 L38.597,45.985 ZM33.392,45.985 C34.110,45.985 34.693,45.402 34.693,44.684 L34.693,42.949 C34.693,42.230 34.110,41.648 33.392,41.648 C32.673,41.648 32.090,42.230 32.090,42.949 L32.090,44.684 C32.090,45.403 32.673,45.985 33.392,45.985 L33.392,45.985 ZM28.186,45.985 C28.905,45.985 29.487,45.402 29.487,44.684 L29.487,42.949 C29.487,42.230 28.905,41.648 28.186,41.648 C27.467,41.648 26.885,42.230 26.885,42.949 L26.885,44.684 C26.885,45.403 27.467,45.985 28.186,45.985 L28.186,45.985 ZM22.980,45.985 C23.699,45.985 24.282,45.402 24.282,44.684 L24.282,42.949 C24.282,42.230 23.699,41.648 22.980,41.648 C22.262,41.648 21.679,42.230 21.679,42.949 L21.679,44.684 C21.679,45.403 22.262,45.985 22.980,45.985 L22.980,45.985 ZM17.775,45.985 C18.493,45.985 19.076,45.402 19.076,44.684 L19.076,42.949 C19.076,42.230 18.493,41.648 17.775,41.648 C17.056,41.648 16.474,42.230 16.474,42.949 L16.474,44.684 C16.474,45.403 17.056,45.985 17.775,45.985 L17.775,45.985 ZM12.570,45.985 C13.288,45.985 13.871,45.402 13.871,44.684 L13.871,42.949 C13.871,42.230 13.288,41.648 12.570,41.648 C11.851,41.648 11.268,42.230 11.268,42.949 L11.268,44.684 C11.268,45.403 11.851,45.985 12.570,45.985 L12.570,45.985 ZM38.597,37.311 C39.316,37.311 39.898,36.728 39.898,36.009 L39.898,34.275 C39.898,33.556 39.316,32.974 38.597,32.974 C37.879,32.974 37.296,33.556 37.296,34.275 L37.296,36.009 C37.296,36.728 37.879,37.311 38.597,37.311 L38.597,37.311 ZM33.392,37.311 C34.110,37.311 34.693,36.728 34.693,36.009 L34.693,34.275 C34.693,33.556 34.110,32.974 33.392,32.974 C32.673,32.974 32.090,33.556 32.090,34.275 L32.090,36.009 C32.090,36.728 32.673,37.311 33.392,37.311 L33.392,37.311 ZM28.186,37.311 C28.905,37.311 29.487,36.728 29.487,36.009 L29.487,34.275 C29.487,33.556 28.905,32.974 28.186,32.974 C27.467,32.974 26.885,33.556 26.885,34.275 L26.885,36.009 C26.885,36.728 27.467,37.311 28.186,37.311 L28.186,37.311 ZM22.980,37.311 C23.699,37.311 24.282,36.728 24.282,36.009 L24.282,34.275 C24.282,33.556 23.699,32.974 22.980,32.974 C22.262,32.974 21.679,33.556 21.679,34.275 L21.679,36.009 C21.679,36.728 22.262,37.311 22.980,37.311 L22.980,37.311 ZM17.775,37.311 C18.493,37.311 19.076,36.728 19.076,36.009 L19.076,34.275 C19.076,33.556 18.493,32.974 17.775,32.974 C17.056,32.974 16.474,33.556 16.474,34.275 L16.474,36.009 C16.474,36.728 17.056,37.311 17.775,37.311 L17.775,37.311 ZM12.570,37.311 C13.288,37.311 13.871,36.728 13.871,36.009 L13.871,34.275 C13.871,33.556 13.288,32.974 12.570,32.974 C11.851,32.974 11.268,33.556 11.268,34.275 L11.268,36.009 C11.268,36.728 11.851,37.311 12.570,37.311 L12.570,37.311 ZM38.597,28.637 C39.316,28.637 39.898,28.054 39.898,27.336 L39.898,25.601 C39.898,24.882 39.316,24.300 38.597,24.300 C37.879,24.300 37.296,24.882 37.296,25.601 L37.296,27.336 C37.296,28.054 37.879,28.637 38.597,28.637 L38.597,28.637 ZM33.392,28.637 C34.110,28.637 34.693,28.054 34.693,27.336 L34.693,25.601 C34.693,24.882 34.110,24.300 33.392,24.300 C32.673,24.300 32.090,24.882 32.090,25.601 L32.090,27.336 C32.090,28.054 32.673,28.637 33.392,28.637 L33.392,28.637 ZM28.186,28.637 C28.905,28.637 29.487,28.054 29.487,27.336 L29.487,25.601 C29.487,24.882 28.905,24.300 28.186,24.300 C27.467,24.300 26.885,24.882 26.885,25.601 L26.885,27.336 C26.885,28.054 27.467,28.637 28.186,28.637 L28.186,28.637 ZM22.980,28.637 C23.699,28.637 24.282,28.054 24.282,27.336 L24.282,25.601 C24.282,24.882 23.699,24.300 22.980,24.300 C22.262,24.300 21.679,24.882 21.679,25.601 L21.679,27.336 C21.679,28.054 22.262,28.637 22.980,28.637 L22.980,28.637 ZM17.775,28.637 C18.493,28.637 19.076,28.054 19.076,27.336 L19.076,25.601 C19.076,24.882 18.493,24.300 17.775,24.300 C17.056,24.300 16.474,24.882 16.474,25.601 L16.474,27.336 C16.474,28.054 17.056,28.637 17.775,28.637 L17.775,28.637 ZM12.570,28.637 C13.288,28.637 13.871,28.054 13.871,27.336 L13.871,25.601 C13.871,24.882 13.288,24.300 12.570,24.300 C11.851,24.300 11.268,24.882 11.268,25.601 L11.268,27.336 C11.268,28.054 11.851,28.637 12.570,28.637 L12.570,28.637 ZM38.597,19.963 C39.316,19.963 39.898,19.380 39.898,18.662 L39.898,16.927 C39.898,16.208 39.316,15.626 38.597,15.626 C37.879,15.626 37.296,16.208 37.296,16.927 L37.296,18.662 C37.296,19.380 37.879,19.963 38.597,19.963 L38.597,19.963 ZM33.392,19.963 C34.110,19.963 34.693,19.380 34.693,18.662 L34.693,16.927 C34.693,16.208 34.110,15.626 33.392,15.626 C32.673,15.626 32.090,16.208 32.090,16.927 L32.090,18.662 C32.090,19.380 32.673,19.963 33.392,19.963 L33.392,19.963 ZM28.186,19.963 C28.905,19.963 29.487,19.380 29.487,18.662 L29.487,16.927 C29.487,16.208 28.905,15.626 28.186,15.626 C27.467,15.626 26.885,16.208 26.885,16.927 L26.885,18.662 C26.885,19.380 27.467,19.963 28.186,19.963 L28.186,19.963 ZM22.980,19.963 C23.699,19.963 24.282,19.380 24.282,18.662 L24.282,16.927 C24.282,16.208 23.699,15.626 22.980,15.626 C22.262,15.626 21.679,16.208 21.679,16.927 L21.679,18.662 C21.679,19.380 22.262,19.963 22.980,19.963 L22.980,19.963 ZM17.775,19.963 C18.493,19.963 19.076,19.380 19.076,18.662 L19.076,16.927 C19.076,16.208 18.493,15.626 17.775,15.626 C17.056,15.626 16.474,16.208 16.474,16.927 L16.474,18.662 C16.474,19.380 17.056,19.963 17.775,19.963 L17.775,19.963 ZM12.570,19.963 C13.288,19.963 13.871,19.380 13.871,18.662 L13.871,16.927 C13.871,16.208 13.288,15.626 12.570,15.626 C11.851,15.626 11.268,16.208 11.268,16.927 L11.268,18.662 C11.268,19.380 11.851,19.963 12.570,19.963 L12.570,19.963 ZM38.597,11.289 C39.316,11.289 39.898,10.706 39.898,9.988 L39.898,8.253 C39.898,7.534 39.316,6.952 38.597,6.952 C37.878,6.952 37.296,7.534 37.296,8.253 L37.296,9.988 C37.296,10.707 37.879,11.289 38.597,11.289 L38.597,11.289 ZM33.392,11.289 C34.110,11.289 34.693,10.706 34.693,9.988 L34.693,8.253 C34.693,7.534 34.110,6.952 33.392,6.952 C32.673,6.952 32.090,7.534 32.090,8.253 L32.090,9.988 C32.090,10.707 32.673,11.289 33.392,11.289 L33.392,11.289 ZM28.186,11.289 C28.905,11.289 29.487,10.706 29.487,9.988 L29.487,8.253 C29.487,7.534 28.905,6.952 28.186,6.952 C27.467,6.952 26.885,7.534 26.885,8.253 L26.885,9.988 C26.885,10.707 27.467,11.289 28.186,11.289 L28.186,11.289 ZM22.980,11.289 C23.699,11.289 24.282,10.706 24.282,9.988 L24.282,8.253 C24.282,7.534 23.699,6.952 22.980,6.952 C22.262,6.952 21.679,7.534 21.679,8.253 L21.679,9.988 C21.679,10.707 22.262,11.289 22.980,11.289 L22.980,11.289 ZM17.775,11.289 C18.493,11.289 19.076,10.706 19.076,9.988 L19.076,8.253 C19.076,7.534 18.493,6.952 17.775,6.952 C17.056,6.952 16.474,7.534 16.474,8.253 L16.474,9.988 C16.474,10.707 17.056,11.289 17.775,11.289 L17.775,11.289 ZM12.570,11.289 C13.288,11.289 13.871,10.706 13.871,9.988 L13.871,8.253 C13.871,7.534 13.288,6.952 12.570,6.952 C11.851,6.952 11.268,7.534 11.268,8.253 L11.268,9.988 C11.268,10.707 11.851,11.289 12.570,11.289 L12.570,11.289 ZM49.876,58.128 L60.287,58.128 C61.006,58.128 61.588,57.546 61.588,56.827 C61.588,56.108 61.006,55.526 60.287,55.526 L49.876,55.526 C49.157,55.526 48.574,56.108 48.574,56.827 C48.574,57.546 49.157,58.128 49.876,58.128 L49.876,58.128 ZM49.876,51.189 L60.287,51.189 C61.006,51.189 61.588,50.607 61.588,49.888 C61.588,49.170 61.006,48.587 60.287,48.587 L49.876,48.587 C49.157,48.587 48.574,49.170 48.574,49.888 C48.574,50.607 49.157,51.189 49.876,51.189 L49.876,51.189 ZM49.876,44.250 L60.287,44.250 C61.006,44.250 61.588,43.667 61.588,42.949 C61.588,42.230 61.006,41.648 60.287,41.648 L49.876,41.648 C49.157,41.648 48.574,42.230 48.574,42.949 C48.574,43.667 49.157,44.250 49.876,44.250 L49.876,44.250 ZM49.876,37.311 L60.287,37.311 C61.006,37.311 61.588,36.728 61.588,36.009 C61.588,35.291 61.006,34.708 60.287,34.708 L49.876,34.708 C49.157,34.708 48.574,35.291 48.574,36.009 C48.574,36.728 49.157,37.311 49.876,37.311 L49.876,37.311 ZM49.876,30.372 L60.287,30.372 C61.006,30.372 61.588,29.789 61.588,29.071 C61.588,28.352 61.006,27.770 60.287,27.770 L49.876,27.770 C49.157,27.770 48.574,28.352 48.574,29.071 C48.574,29.789 49.157,30.372 49.876,30.372 L49.876,30.372 ZM49.876,23.432 L60.287,23.432 C61.006,23.432 61.588,22.850 61.588,22.131 C61.588,21.413 61.006,20.830 60.287,20.830 L49.876,20.830 C49.157,20.830 48.574,21.413 48.574,22.131 C48.574,22.850 49.157,23.432 49.876,23.432 L49.876,23.432 ZM45.972,16.494 L64.191,16.494 L64.191,60.956 C64.043,61.008 63.898,61.069 63.757,61.139 C63.222,60.872 62.630,60.731 62.022,60.731 C61.415,60.731 60.823,60.873 60.287,61.139 C59.752,60.872 59.159,60.731 58.552,60.731 C57.945,60.731 57.352,60.873 56.817,61.139 C56.281,60.872 55.689,60.731 55.081,60.731 C54.474,60.731 53.882,60.873 53.346,61.139 C52.811,60.872 52.219,60.731 51.612,60.731 C51.004,60.731 50.412,60.873 49.876,61.139 C49.341,60.872 48.748,60.731 48.141,60.731 C47.534,60.731 46.942,60.873 46.406,61.139 C46.265,61.069 46.120,61.008 45.972,60.956 L45.972,16.494 L45.972,16.494 L45.972,16.494 ZM7.797,2.615 L43.369,2.615 L43.369,15.192 L43.369,60.956 C43.221,61.008 43.075,61.069 42.935,61.139 C42.400,60.872 41.807,60.731 41.200,60.731 C40.752,60.731 40.313,60.808 39.898,60.956 L39.898,60.297 C39.898,59.578 39.316,58.996 38.597,58.996 C37.878,58.996 37.296,59.578 37.296,60.297 L37.296,60.756 C36.842,60.806 36.401,60.937 35.994,61.139 C35.587,60.937 35.147,60.806 34.693,60.756 L34.693,60.297 C34.693,59.578 34.110,58.996 33.392,58.996 C32.673,58.996 32.090,59.578 32.090,60.297 L32.090,60.956 C31.676,60.808 31.236,60.730 30.789,60.730 C30.341,60.730 29.902,60.808 29.487,60.956 L29.487,60.297 C29.487,59.578 28.905,58.996 28.186,58.996 C27.467,58.996 26.885,59.578 26.885,60.297 L26.885,60.756 C26.430,60.806 25.990,60.937 25.583,61.139 C25.176,60.937 24.736,60.806 24.282,60.756 L24.282,60.297 C24.282,59.578 23.699,58.996 22.980,58.996 C22.262,58.996 21.679,59.578 21.679,60.297 L21.679,60.956 C21.265,60.808 20.825,60.730 20.378,60.730 C19.930,60.730 19.491,60.808 19.076,60.956 L19.076,60.297 C19.076,59.578 18.493,58.996 17.775,58.996 C17.056,58.996 16.473,59.578 16.473,60.297 L16.473,60.756 C16.019,60.806 15.579,60.937 15.172,61.139 C14.765,60.937 14.325,60.806 13.871,60.756 L13.871,60.297 C13.871,59.578 13.288,58.996 12.569,58.996 C11.850,58.996 11.268,59.578 11.268,60.297 L11.268,60.956 C10.853,60.808 10.414,60.730 9.966,60.730 C9.359,60.730 8.767,60.872 8.231,61.139 C8.090,61.069 7.946,61.008 7.797,60.956 L7.797,2.615 L7.797,2.615 ZM66.363,69.404 C66.361,69.404 66.359,69.404 66.357,69.404 L5.635,69.405 C5.633,69.405 5.631,69.404 5.629,69.404 C4.911,69.404 4.327,68.821 4.327,68.103 C4.327,67.659 4.553,67.249 4.931,67.007 C5.513,66.635 5.703,65.873 5.363,65.271 C5.251,65.073 5.195,64.859 5.195,64.634 C5.195,63.916 5.779,63.333 6.496,63.333 C6.905,63.333 7.193,63.515 7.363,63.667 C7.857,64.111 8.606,64.111 9.101,63.667 C9.271,63.515 9.559,63.333 9.967,63.333 C10.375,63.333 10.663,63.515 10.833,63.667 C11.328,64.111 12.077,64.111 12.571,63.667 C12.741,63.515 13.029,63.333 13.438,63.333 C13.846,63.333 14.134,63.515 14.304,63.667 C14.798,64.111 15.548,64.111 16.042,63.667 C16.212,63.515 16.500,63.333 16.908,63.333 C17.316,63.333 17.604,63.515 17.775,63.667 C18.269,64.111 19.018,64.111 19.512,63.667 C19.682,63.515 19.970,63.333 20.379,63.333 C20.787,63.333 21.075,63.515 21.245,63.667 C21.739,64.111 22.489,64.111 22.983,63.667 C23.153,63.515 23.441,63.333 23.849,63.333 C24.257,63.333 24.546,63.515 24.716,63.667 C25.210,64.111 25.959,64.111 26.454,63.667 C26.624,63.515 26.912,63.333 27.320,63.333 C27.728,63.333 28.016,63.515 28.186,63.667 C28.681,64.111 29.430,64.111 29.924,63.667 C30.094,63.515 30.382,63.333 30.790,63.333 C31.199,63.333 31.487,63.515 31.657,63.667 C32.151,64.111 32.900,64.111 33.395,63.667 C33.565,63.515 33.853,63.333 34.261,63.333 C34.669,63.333 34.958,63.515 35.127,63.667 C35.622,64.111 36.371,64.111 36.866,63.667 C37.035,63.515 37.323,63.333 37.732,63.333 C38.140,63.333 38.428,63.515 38.598,63.667 C39.092,64.111 39.842,64.111 40.336,63.667 C40.506,63.515 40.794,63.333 41.203,63.333 C41.610,63.333 41.899,63.515 42.068,63.667 C42.563,64.111 43.312,64.111 43.807,63.667 C43.976,63.515 44.265,63.333 44.673,63.333 C45.081,63.333 45.369,63.515 45.539,63.667 C46.034,64.111 46.783,64.111 47.277,63.667 C47.447,63.515 47.735,63.333 48.144,63.333 C48.552,63.333 48.840,63.515 49.010,63.667 C49.504,64.111 50.253,64.111 50.748,63.667 C50.918,63.515 51.206,63.333 51.614,63.333 C52.022,63.333 52.310,63.515 52.481,63.667 C52.975,64.111 53.724,64.111 54.218,63.667 C54.389,63.515 54.676,63.333 55.085,63.333 C55.493,63.333 55.781,63.515 55.951,63.667 C56.446,64.111 57.194,64.111 57.689,63.667 C57.859,63.515 58.147,63.333 58.555,63.333 C58.963,63.333 59.252,63.515 59.422,63.667 C59.916,64.111 60.665,64.111 61.160,63.667 C61.330,63.515 61.618,63.333 62.026,63.333 C62.434,63.333 62.722,63.515 62.892,63.667 C63.387,64.111 64.136,64.111 64.630,63.667 C64.800,63.515 65.088,63.333 65.497,63.333 C66.214,63.333 66.798,63.916 66.798,64.634 C66.798,64.859 66.741,65.073 66.630,65.271 C66.290,65.873 66.480,66.635 67.062,67.007 C67.440,67.249 67.666,67.659 67.666,68.103 C67.665,68.821 67.081,69.404 66.363,69.404 L66.363,69.404 Z"/>
</svg>
